X: 51
T: Akşam Oldu Hüzünlendim...
C: Semahat Özdenses
O: Turkey
F: http://compmusic.upf.edu/node/140
N: ussak--sarki--duyek--aksam_oldu_huzunlendim--semahat_ozdenses
N: makam= ussak
N: form= sarki
N: usul= duyek = 8/4
M: 8/4
L: 1/16
K: C _2/4B   
Q: 1/4=120
%%MIDI tuningsystem comma53
c2 d6 d2 {e}dc cB c2  | c2 c2 B2 A2 A2 {c}BA A2 G2  | \
w:  Ak şam  ol *  *  *  du   |  hü zün *  *  len *  *  *  dim   | 
c2 BA B2 c2 d8  | 
w:  ben  *  *  *  yi ne    | 
c2 BA B2 c2 d3e cB A2  | c2 d6 d2 {e}dc cB c2  | \
w:  SAZ  |  Ak şam  ol *  *  *  du   | 
c2 c2 B2 A2 A2 {c}BA A2 G2  | 
w:  hü zün *  *  len *  *  *  dim   | 
c2 BA B2 c2 d8  | c2 BA B2 c2 d6 z2  | \
w:  ben  *  *  *  yi ne    |  SAZ  | 
d2 e6 e3d ed/c/ d2  | 
w:  Has ret  kal *  dım   | 
z2 e2 d2 f2 e2 d2 c2 B2  | A2 dc B2 BA A4 de/d/ d/c/d  | 
w:  göz *  le ri *  nin   |  *  ren *  *  gi *  ne  ah   | 
d2 e6 e3d ed/c/ d2  | z2 e2 d2 f2 e2 d2 c2 B2  | \
w:  Has ret  kal *  dım   |  göz *  le ri *  nin   | 
A2 dc B2 BA A8  | 
w:  *  ren *  *  gi *  ne    | 
z2 a4 g2 ^fe fg a4  | g2 c'6 ba bc' a4  | \
w:  SAZ  |  Gel  meh ta *  *  *  bım   | 
z2 a4 b2 g4 ^f4  | z2 g4 b2 a8  | 
w:  gel  sev gi lim   |  gel  yi ne    | 
z2 c'2 b2 a2 g2 ^fg a4  | g2 c'6 ba bc' a4  | \
w:  SAZ  |  Gel  meh ta *  *  *  bım   | 
z2 a4 g2 f4 e4  | z2 g2 e2 ed d8  | 
w:  gel  sev gi lim   |  gel  *  yi *  ne    | 
c2 BA B2 c2 d8  | d2 e6 e3d ed/c/ d2  | \
w:  SAZ  |  Has ret  kal *  dım   | 
z2 e2 d2 f2 e2 d2 c2 B2  | 
w:  göz *  le ri *  nin   | 
A2 dc B2 BA A4 de/d/ d/c/d  | d2 e6 e3d ed/c/ d2  | 
w:  *  ren *  *  gi *  ne  ah   |  Has ret  kal *  dım   | 
z2 e2 d2 f2 e2 d2 c2 B2  | A2 dc B2 BA A8  | |


